X: 18469
T: Hut Of The Rising Sun, The
R: hornpipe
M: 4/4
K: Gmajor
BA|:G2GE DEGB|d2dB AGAB|(3cdc (3BcB (3ABA (3GAG|EAAG AcBA|
G2GE DEGB|d2dB AGAB|(3cdc (3BcB (3ABA (3EGE|1 DGGF GcBA:|2 DGGF G2Bc||
|:dBGd ecAe|dggf g2fg|(3aba (3gag (3fgf (3efe|decd BABc|
dBGd ecAe|dggf g2fe|(3ded (3cdc (3BcB (3ABA|1 GFAF G2Bc:|2 GFAF G2||

